2017/images/schedule/closing.svg

<?xml version="1.0" standalone="no"?>
<!-- Generator: Adobe Fireworks CS5, Export SVG Extension by Aaron Beall (http://fireworks.abeall.com) . Version: 0.6.1  -->
<!DOCTYPE svg PUBLIC "-//W3C//DTD SVG 1.1//EN" "http://www.w3.org/Graphics/SVG/1.1/DTD/svg11.dtd">
<svg id="Untitled-Page%201" viewBox="0 0 110 110" style="background-color:#ffffff00" version="1.1"
	xmlns="http://www.w3.org/2000/svg" xmlns:xlink="http://www.w3.org/1999/xlink" xml:space="preserve"
	x="0px" y="0px" width="110px" height="110px"
>
	<g id="Layer%201">
		<path d="M 53.1794 63.1047 C 51.7466 61.3628 49.8933 58.6709 47.8657 55.6956 C 46.0864 59.1519 43.8361 62.4089 40.7166 64.823 C 39.0399 62.4988 37.9003 59.7751 36.7735 57.4187 C 36.4409 56.7229 35.3817 55.2844 35.0327 54.8174 C 34.554 55.0786 33.0617 58.1697 28 59.6667 C 29.0342 61.0291 30.375 61.5625 31.25 63.375 C 31.7593 64.4299 32.3515 66.2568 34.399 68.4568 C 37.3127 67.0537 41.0615 64.686 41.0615 64.686 C 42.1732 66.9058 42.8837 69.9199 43.3156 72.3616 C 46.7977 71.1604 50.3371 67.6257 50.3371 67.6257 C 50.3371 67.6257 51.4987 65.6069 53.1794 63.1047 ZM 34.933 54.6533 C 35.2013 54.3367 39.5525 49.1692 40.6249 45.6714 C 38.0381 42.8257 35.3291 40.9504 33.3667 39.8218 C 32.9999 40.7002 32.6441 41.6431 32.3008 42.6541 C 31.1406 46.071 30.3212 47.8066 28.1667 49.1667 C 31.3225 50.7603 33.2599 52.8645 33.9843 53.6433 C 34.4705 54.1658 34.7621 54.4749 34.933 54.6533 ZM 40.7629 45.189 C 40.7195 45.3506 40.674 45.512 40.6249 45.6714 C 41.3617 46.4822 42.0879 47.3708 42.7849 48.344 C 44.5068 50.7493 46.2422 53.3137 47.8657 55.6956 C 48.2857 54.8796 48.6797 54.052 49.0524 53.2222 C 49.9994 51.1135 52.1974 48.6667 54.4177 46.5479 C 52.5649 43.6272 50.8985 41.0537 50.4236 40.0791 C 49.9802 39.1687 48.3157 37.1802 46.4185 35.0605 C 44.3528 36.6807 42.0178 40.5151 40.7629 45.189 ZM 57.5643 43.7385 C 56.608 44.5435 55.5101 45.5054 54.4177 46.5479 C 56.3145 49.5378 58.4063 52.8906 59.6122 55.2617 C 60.9551 54.1111 62.2246 53.4607 63.2427 53.7383 L 57.5643 43.7385 ZM 41.2635 29.5139 C 42.6371 30.9512 44.631 33.0635 46.4185 35.0605 C 47.1819 34.4619 47.9081 34.165 48.53 34.2405 C 49.2656 34.3301 50.668 34.3582 52.237 34.356 L 48.8798 28.4429 C 48.8798 28.4429 45.3961 27.1113 41.2635 29.5139 Z" fill="#ffffff"/>
		<path d="M 48.1127 27.8225 L 78.7675 82 L 80 80.4626 L 50.5424 27 L 48.1127 27.8225 Z" fill="#ffffff"/>
	</g>
</svg>

<svg style="background-color:#ffffff00" xmlns="http://www.w3.org/2000/svg" width="110" height="110"><g fill="#fff"><path d="M53.18 63.105c-1.433-1.742-3.287-4.434-5.314-7.41-1.78 3.457-4.03 6.714-7.15 9.128-1.676-2.324-2.816-5.048-3.943-7.404-.332-.696-1.391-2.135-1.74-2.602-.479.262-1.971 3.353-7.033 4.85 1.034 1.362 2.375 1.895 3.25 3.708.51 1.055 1.102 2.882 3.149 5.082 2.914-1.403 6.663-3.771 6.663-3.771 1.111 2.22 1.822 5.234 2.254 7.676 3.482-1.202 7.021-4.736 7.021-4.736s1.162-2.02 2.842-4.521zm-18.247-8.452c.268-.316 4.62-5.484 5.692-8.982a30.346 30.346 0 0 0-7.258-5.85 44.412 44.412 0 0 0-1.066 2.833c-1.16 3.417-1.98 5.153-4.134 6.513 3.155 1.593 5.093 3.697 5.817 4.476.486.523.778.832.949 1.01zm5.83-9.464c-.044.162-.089.323-.138.482.737.811 1.463 1.7 2.16 2.673 1.722 2.405 3.457 4.97 5.08 7.352.42-.816.815-1.644 1.187-2.474.947-2.108 3.145-4.555 5.366-6.674-1.853-2.92-3.52-5.494-3.994-6.469-.444-.91-2.108-2.899-4.005-5.019-2.066 1.62-4.401 5.455-5.656 10.129zm16.801-1.45a68.425 68.425 0 0 0-3.146 2.809c1.897 2.99 3.988 6.343 5.194 8.714 1.343-1.15 2.613-1.801 3.63-1.524l-5.678-10zm-16.3-14.225a244.365 244.365 0 0 1 5.154 5.546c.764-.598 1.49-.895 2.112-.82.736.09 2.138.118 3.707.116l-3.357-5.913s-3.484-1.332-7.617 1.07z"/><path d="M48.113 27.823L78.767 82 80 80.463 50.542 27l-2.43.823z"/></g></svg>
